dist/img/video-youtube.svg

<svg width="51" height="51" viewBox="0 0 51 51" fill="none" xmlns="http://www.w3.org/2000/svg">
<rect width="51" height="51" fill="#E5E5E5"/>
<g clip-path="url(#clip0_199_738)">
<rect width="1600" height="5201" transform="translate(-889 -4715)" fill="white"/>
<g filter="url(#filter0_d_199_738)">
<circle cx="25.7221" cy="25.6298" r="25.2778" fill="#F52929"/>
<path fill-rule="evenodd" clip-rule="evenodd" d="M36.2223 17.9168C36.9062 18.7004 37.1476 20.474 37.1476 20.474C37.1476 20.474 37.389 22.5776 37.389 24.6811V26.6196C37.389 28.6819 37.1476 30.7855 37.1476 30.7855C37.1476 30.7855 36.9062 32.5591 36.2223 33.3427C35.3806 34.2841 34.4298 34.3675 33.958 34.4089C33.9337 34.4111 33.9107 34.4131 33.889 34.4151C30.6304 34.7038 25.7223 34.7038 25.7223 34.7038C25.7223 34.7038 19.6476 34.6626 17.7971 34.4564C17.6987 34.4331 17.5776 34.4157 17.4399 34.3959C16.8453 34.3102 15.941 34.18 15.2223 33.3427C14.5385 32.5591 14.2971 30.7855 14.2971 30.7855C14.2971 30.7855 14.0557 28.7232 14.0557 26.6197V24.6811C14.0557 22.5776 14.2971 20.474 14.2971 20.474C14.2971 20.474 14.4982 18.7005 15.2223 17.9168C16.064 16.9754 17.0149 16.8919 17.4866 16.8505C17.5109 16.8484 17.534 16.8464 17.5557 16.8444C20.8143 16.5969 25.7223 16.5557 25.7223 16.5557C25.7223 16.5557 30.6304 16.5969 33.889 16.8444C33.9226 16.8475 33.9594 16.8504 33.9992 16.8535C34.4835 16.8916 35.4045 16.9639 36.2223 17.9168ZM22.9062 30.4142V21.4639L30.5499 26.0422L22.9062 30.4142Z" fill="white"/>
</g>
</g>
<path d="M-1732.5 -363.5C-1735 -363.5 -1737 -361.5 -1737 -359C-1737 -356.5 -1735 -354.5 -1732.5 -354.5C-1730 -354.5 -1728 -356.5 -1728 -359C-1728 -361.5 -1730 -363.5 -1732.5 -363.5Z" fill="white"/>
<path d="M869.061 693.061C869.646 692.475 869.646 691.525 869.061 690.939L859.515 681.393C858.929 680.808 857.979 680.808 857.393 681.393C856.808 681.979 856.808 682.929 857.393 683.515L865.879 692L857.393 700.485C856.808 701.071 856.808 702.021 857.393 702.607C857.979 703.192 858.929 703.192 859.515 702.607L869.061 693.061ZM-1735.5 -359C-1735.5 -360.672 -1734.17 -362 -1732.5 -362V-365C-1735.83 -365 -1738.5 -362.328 -1738.5 -359H-1735.5ZM-1732.5 -362C-1730.83 -362 -1729.5 -360.672 -1729.5 -359H-1726.5C-1726.5 -362.328 -1729.17 -365 -1732.5 -365V-362ZM-1729.5 -359C-1729.5 -357.328 -1730.83 -356 -1732.5 -356V-353C-1729.17 -353 -1726.5 -355.672 -1726.5 -359H-1729.5ZM-1732.5 -356C-1734.17 -356 -1735.5 -357.328 -1735.5 -359H-1738.5C-1738.5 -355.672 -1735.83 -353 -1732.5 -353V-356ZM-1734 -354.5V672H-1731V-354.5H-1734ZM-1712.5 693.5H868V690.5H-1712.5V693.5ZM-1734 672C-1734 683.874 -1724.37 693.5 -1712.5 693.5V690.5C-1722.72 690.5 -1731 682.217 -1731 672H-1734Z" fill="black"/>
<defs>
<filter id="filter0_d_199_738" x="-15.1112" y="-7.42573" width="81.6668" height="81.6668" filterUnits="userSpaceOnUse" color-interpolation-filters="sRGB">
<feFlood flood-opacity="0" result="BackgroundImageFix"/>
<feColorMatrix in="SourceAlpha" type="matrix" values="0 0 0 0 0 0 0 0 0 0 0 0 0 0 0 0 0 0 127 0" result="hardAlpha"/>
<feOffset dy="7.77778"/>
<feGaussianBlur stdDeviation="7.77778"/>
<feColorMatrix type="matrix" values="0 0 0 0 0 0 0 0 0 0 0 0 0 0 0 0 0 0 0.1 0"/>
<feBlend mode="normal" in2="BackgroundImageFix" result="effect1_dropShadow_199_738"/>
<feBlend mode="normal" in="SourceGraphic" in2="effect1_dropShadow_199_738" result="shape"/>
</filter>
<clipPath id="clip0_199_738">
<rect width="1600" height="5201" fill="white" transform="translate(-889 -4715)"/>
</clipPath>
</defs>
</svg>

<svg width="51" height="51" fill="none" xmlns="http://www.w3.org/2000/svg"><path fill="#E5E5E5" d="M0 0h51v51H0z"/><g clip-path="url(#a)"><path fill="#fff" d="M-889-4715H711V486H-889z"/><g filter="url(#b)"><circle cx="25.722" cy="25.63" r="25.278" fill="#F52929"/><path fill-rule="evenodd" clip-rule="evenodd" d="M36.222 17.917c.684.783.926 2.557.926 2.557s.241 2.104.241 4.207v1.939a42.02 42.02 0 0 1-.241 4.165s-.242 1.774-.926 2.558c-.841.941-1.792 1.024-2.264 1.066l-.069.006c-3.259.289-8.167.289-8.167.289s-6.074-.041-7.925-.248c-.098-.023-.22-.04-.357-.06-.595-.086-1.499-.216-2.218-1.053-.683-.784-.925-2.558-.925-2.558s-.241-2.062-.241-4.165V24.68c0-2.103.241-4.207.241-4.207s.201-1.773.925-2.557c.842-.942 1.793-1.025 2.265-1.067l.069-.006c3.258-.247 8.166-.288 8.166-.288s4.908.04 8.167.288l.11.01c.484.038 1.405.11 2.223 1.063ZM22.906 30.414v-8.95l7.644 4.578-7.644 4.372Z" fill="#fff"/></g></g><path d="M-1732.5-363.5c-2.5 0-4.5 2-4.5 4.5s2 4.5 4.5 4.5 4.5-2 4.5-4.5-2-4.5-4.5-4.5Z" fill="#fff"/><path d="M869.061 693.061a1.502 1.502 0 0 0 0-2.122l-9.546-9.546a1.502 1.502 0 0 0-2.122 0 1.502 1.502 0 0 0 0 2.122l8.486 8.485-8.486 8.485a1.502 1.502 0 0 0 0 2.122 1.502 1.502 0 0 0 2.122 0l9.546-9.546ZM-1735.5-359c0-1.672 1.33-3 3-3v-3c-3.33 0-6 2.672-6 6h3Zm3-3c1.67 0 3 1.328 3 3h3c0-3.328-2.67-6-6-6v3Zm3 3c0 1.672-1.33 3-3 3v3c3.33 0 6-2.672 6-6h-3Zm-3 3c-1.67 0-3-1.328-3-3h-3c0 3.328 2.67 6 6 6v-3Zm-1.5 1.5V672h3V-354.5h-3Zm21.5 1048H868v-3h-2580.5v3ZM-1734 672c0 11.874 9.63 21.5 21.5 21.5v-3c-10.22 0-18.5-8.283-18.5-18.5h-3Z" fill="#000"/><defs><clipPath id="a"><path fill="#fff" transform="translate(-889 -4715)" d="M0 0h1600v5201H0z"/></clipPath><filter id="b" x="-15.111" y="-7.426" width="81.667" height="81.667" filterUnits="userSpaceOnUse" color-interpolation-filters="sRGB"><feFlood flood-opacity="0" result="BackgroundImageFix"/><feColorMatrix in="SourceAlpha" values="0 0 0 0 0 0 0 0 0 0 0 0 0 0 0 0 0 0 127 0" result="hardAlpha"/><feOffset dy="7.778"/><feGaussianBlur stdDeviation="7.778"/><feColorMatrix values="0 0 0 0 0 0 0 0 0 0 0 0 0 0 0 0 0 0 0.1 0"/><feBlend in2="BackgroundImageFix" result="effect1_dropShadow_199_738"/><feBlend in="SourceGraphic" in2="effect1_dropShadow_199_738" result="shape"/></filter></defs></svg>
